!!!OTL: Yuanyuan kan mei mei fei lai
!!!ARE: Asia, China,ÿTaiwan, Xinzhu miaoli taoyuan
!! IV, 639
!!!SCT: C1707
!!!YEM: Copyright 1995, estate of Helmut Schaffrath.
**kern
*ICvox
*Ivox
*M2/4
*k[f#]
*G:
{8a
16dd
16b
8dd
16b
16dd
=1
8gg
16b
[16dd
8dd]
8r
=2
8dd
16a
16b
16a
8.g
=3
8.g
16a
8.dd
16b
=4
8a
16b
16dd
16a
16b
16a
16g
=5
4.g
8r}
=6
{8b
16a
16b
8.dd
16b
=7
8b
16a
16b
4a
=8
8e
4d
8r
=9
8dd
8g
8.b
16dd
=10
8e
4e
16f#
16e
=11
2d}
=12
{8b
16a
16b
8.dd
16b
=13
8b
16a
16b
4dd
=14
8b
16a
16b
16a
8.g
=15
8.g
16a
8dd
8ee
=16
8b
16b
16dd
16a
16b
16a
16g
=17
4.g
8r}
=18
{8.dd
16ee
8b
16b
16dd
=19
8g
16a
16b
16a
16b
8e
=20
8d
8g
4r
=21
8dd
8gg
16ee
16gg
16gg
16ee
=22
8dd
16dd
16ee
8gg
16ee
16b
=23
4.dd
8r}
=24
{8dd
16dd
16ee
16dd
8.b
=25
8dd
8ee
8dd
16b
16dd
=26
16a
16b
4.g
=27
8.g
16a
8.dd
16b
=28
8.dd
16b
16a
16b
16a
16g
=29
2g}
=30
{8.dd
16ee
8b
8dd
=31
8g
16a
16b
16a
16b
8e
=32
8d
4g
8r
=33
8a
8dd
16a
16b
16a
16g
=34
8e
4e
8r}
=35
{8b
8ee
8.dd
16ee
=36
8dd
8gg
16ee
16dd
8b
=37
8dd
16dd
16b
4a
=38
8.g
16a
8.dd
16b
=39
8dd
16a
16b
8.a
16b
=40
4.g
8r}
=41
{8.dd
16ee
8b
8dd
=42
8g
16a
16b
16a
16b
8e
=43
8d
8g
4r
=44
8dd
8gg
16ee
16gg
16gg
16ee
=45
8dd
16dd
16ee
8gg
16ee
16b
=46
2dd}
==
!!!AGN: Xiaodiao, Pingban diao, Caicha diao
!!!AMT: simple duple
!!!AIN: vox
!!!EED: Helmut Schaffrath
!!!EEV: 1.0
*-
